src/assets/filled/ChartSuccess.svg

<?xml version="1.0" encoding="UTF-8"?>
<svg width="24" height="24" viewBox="0 0 24 24" xmlns="http://www.w3.org/2000/svg">
 <path d="m20.97 16h-2.94c-1.27 0-2.03 0.76-2.03 2.03v2.94c0 1.27 0.76 2.03 2.03 2.03h2.94c1.27 0 2.03-0.76 2.03-2.03v-2.94c0-1.27-0.76-2.03-2.03-2.03zm0.66 2.45-2.37 2.77c-0.1 0.11-0.23 0.18-0.38 0.18h-0.02c-0.13 0-0.27-0.05-0.36-0.15l-1.1-1.08c-0.2-0.2-0.2-0.53 0-0.74 0.2-0.2 0.53-0.2 0.74 0l0.69 0.69 2.01-2.34c0.18-0.22 0.51-0.25 0.73-0.06s0.24 0.52 0.06 0.73z"/>
 <path d="m20.97 16h-2.94c-1.27 0-2.03 0.76-2.03 2.03v2.94c0 1.27 0.76 2.03 2.03 2.03h2.94c1.27 0 2.03-0.76 2.03-2.03v-2.94c0-1.27-0.76-2.03-2.03-2.03zm0.66 2.45-2.37 2.77c-0.1 0.11-0.23 0.18-0.38 0.18h-0.02c-0.13 0-0.27-0.05-0.36-0.15l-1.1-1.08c-0.2-0.2-0.2-0.53 0-0.74 0.2-0.2 0.53-0.2 0.74 0l0.69 0.69 2.01-2.34c0.18-0.22 0.51-0.25 0.73-0.06s0.24 0.52 0.06 0.73z"/>
 <path d="m21.97 7.21c-0.28-2.73-2.45-4.9-5.18-5.18-0.2-0.02-0.4-0.03-0.6-0.03h-8.38c-0.2 0-0.4 0.01-0.6 0.03-2.73 0.28-4.9 2.45-5.18 5.18-0.02 0.2-0.03 0.4-0.03 0.6v8.38c0 0.2 0.01 0.4 0.03 0.6 0.28 2.73 2.45 4.9 5.18 5.18 0.2 0.02 0.4 0.03 0.6 0.03h6.19c0.55 0 1-0.45 1-1v-2.97c0-1.67 1.36-3.03 3.03-3.03h2.97c0.55 0 1-0.45 1-1v-6.19c0-0.2-0.01-0.4-0.03-0.6zm-14.22 6.29c0 0.41-0.34 0.75-0.75 0.75s-0.75-0.34-0.75-0.75v-3c0-0.41 0.34-0.75 0.75-0.75s0.75 0.34 0.75 0.75v3zm5 0c0 0.41-0.34 0.75-0.75 0.75s-0.75-0.34-0.75-0.75v-3c0-0.41 0.34-0.75 0.75-0.75s0.75 0.34 0.75 0.75v3z"/>
</svg>

<svg width="24" height="24" viewBox="0 0 24 24"  xmlns="http://www.w3.org/2000/svg">
<path d="M20.97 16H18.03C16.76 16 16 16.76 16 18.03V20.97C16 22.24 16.76 23 18.03 23H20.97C22.24 23 23 22.24 23 20.97V18.03C23 16.76 22.24 16 20.97 16ZM21.63 18.45L19.26 21.22C19.16 21.33 19.03 21.4 18.88 21.4C18.88 21.4 18.87 21.4 18.86 21.4C18.73 21.4 18.59 21.35 18.5 21.25L17.4 20.17C17.2 19.97 17.2 19.64 17.4 19.43C17.6 19.23 17.93 19.23 18.14 19.43L18.83 20.12L20.84 17.78C21.02 17.56 21.35 17.53 21.57 17.72C21.79 17.91 21.81 18.24 21.63 18.45Z" />
<path d="M20.97 16H18.03C16.76 16 16 16.76 16 18.03V20.97C16 22.24 16.76 23 18.03 23H20.97C22.24 23 23 22.24 23 20.97V18.03C23 16.76 22.24 16 20.97 16ZM21.63 18.45L19.26 21.22C19.16 21.33 19.03 21.4 18.88 21.4C18.88 21.4 18.87 21.4 18.86 21.4C18.73 21.4 18.59 21.35 18.5 21.25L17.4 20.17C17.2 19.97 17.2 19.64 17.4 19.43C17.6 19.23 17.93 19.23 18.14 19.43L18.83 20.12L20.84 17.78C21.02 17.56 21.35 17.53 21.57 17.72C21.79 17.91 21.81 18.24 21.63 18.45Z" />
<path d="M21.97 7.21C21.69 4.48 19.52 2.31 16.79 2.03C16.59 2.01 16.39 2 16.19 2H7.81C7.61 2 7.41 2.01 7.21 2.03C4.48 2.31 2.31 4.48 2.03 7.21C2.01 7.41 2 7.61 2 7.81V16.19C2 16.39 2.01 16.59 2.03 16.79C2.31 19.52 4.48 21.69 7.21 21.97C7.41 21.99 7.61 22 7.81 22H14C14.55 22 15 21.55 15 21V18.03C15 16.36 16.36 15 18.03 15H21C21.55 15 22 14.55 22 14V7.81C22 7.61 21.99 7.41 21.97 7.21ZM7.75 13.5C7.75 13.91 7.41 14.25 7 14.25C6.59 14.25 6.25 13.91 6.25 13.5V10.5C6.25 10.09 6.59 9.75 7 9.75C7.41 9.75 7.75 10.09 7.75 10.5V13.5ZM12.75 13.5C12.75 13.91 12.41 14.25 12 14.25C11.59 14.25 11.25 13.91 11.25 13.5V10.5C11.25 10.09 11.59 9.75 12 9.75C12.41 9.75 12.75 10.09 12.75 10.5V13.5Z" />
</svg>
